src/assets/images/sponsors/titansoft.svg

<svg fill="none" height="240" viewBox="0 0 300 240" width="300" xmlns="http://www.w3.org/2000/svg" xmlns:xlink="http://www.w3.org/1999/xlink"><clipPath id="a"><path d="m43 30h215v181h-215z"/></clipPath><path d="m0 0h300v240h-300z" fill="#fff"/><g clip-path="url(#a)" fill="#040000"><path d="m192.812 137.903h-84.607c-6.312 0-11.455-5.163-11.455-11.499v-84.9059c0-6.336 5.143-11.4981 11.455-11.4981h84.607c6.312 0 11.438 5.1448 11.438 11.4981v84.9239c0 6.336-5.126 11.498-11.438 11.498zm-84.607-104.6228c-4.506 0-8.17 3.6774-8.17 8.2006v84.9232c0 4.524 3.664 8.201 8.17 8.201h84.607c4.506 0 8.17-3.677 8.17-8.201v-84.9059c0-4.5233-3.664-8.2006-8.17-8.2006h-84.607z"/><path d="m119.23 59.5396h-6.948v6.9748h6.948z"/><path d="m119.23 45.5898h-6.948v6.9749h6.948z"/><path d="m133.128 59.5396h-6.949v6.9748h6.949z"/><path d="m133.128 45.5898h-6.949v6.9749h6.949z"/><path d="m147.026 115.338h-6.949v6.975h6.949z"/><path d="m147.026 101.388h-6.949v6.975h6.949z"/><path d="m147.026 87.4385h-6.949v6.9748h6.949z"/><path d="m147.026 73.4893h-6.949v6.9748h6.949z"/><path d="m147.026 59.5396h-6.949v6.9748h6.949z"/><path d="m147.026 45.5898h-6.949v6.9749h6.949z"/><path d="m160.923 115.338h-6.949v6.975h6.949z"/><path d="m160.923 101.388h-6.949v6.975h6.949z"/><path d="m160.923 87.4385h-6.949v6.9748h6.949z"/><path d="m160.923 73.4893h-6.949v6.9748h6.949z"/><path d="m160.923 59.5396h-6.949v6.9748h6.949z"/><path d="m160.923 45.5898h-6.949v6.9749h6.949z"/><path d="m174.821 59.5396h-6.949v6.9748h6.949z"/><path d="m174.821 45.5898h-6.949v6.9749h6.949z"/><path d="m188.718 59.5396h-6.948v6.9748h6.948z"/><path d="m188.718 45.5898h-6.948v6.9749h6.948z"/><path d="m100.465 211h2.632v-5.956h18.129v5.956h2.631v-20.01h-23.392zm2.632-15.693h18.129v5.421h-18.129zm-60.097 0h9.6664v15.693h2.6316v-15.693h9.6664v-4.317h-21.9644zm31.82 0h9.6664v15.693h2.6316v-15.693h9.6664v-4.317h-21.9472v4.317zm-6.3296 15.693h2.6316v-20.01h-2.6316zm86.4296-7.786h20.279v3.487h-20.279v4.316h22.911v-12.102h-20.279v-3.591h20.279v-4.316h-22.911v12.223zm26.918 7.786h23.392v-20.01h-23.392zm2.632-15.693h18.129v11.394h-18.129zm-56.949 15.693h2.631v-15.693h18.129v15.693h2.632v-20.01h-23.392zm108.532-20.01v4.317h9.666v15.693h2.632v-15.693h9.666v-4.317h-21.947zm-26.97 20.01h2.632v-7.855h20.279v-4.317h-20.279v-3.539h20.279v-4.316h-22.911v20.01z"/><path d="m80.8056 162.228c-.0172 4.195-.1204 8.304-.2924 12.31-.172 4.005-.3612 6.318-.5504 6.94-.2064.621-.5504 1.122-1.0664 1.467-.516.363-1.3244.535-2.4252.535-.5504 0-1.1008-.017-1.6512-.069l-.6536-2.555c.7224.052 1.3072.087 1.7544.087 1.118 0 1.7544-.363 1.9436-1.088.172-.725.3612-5.784.5676-15.141h-3.526c-.2408 8.183-1.6512 13.967-4.1624 18.922l-2.0124-1.537c2.3736-4.471 3.7668-10.307 3.8012-17.368h-3.1648v-2.486h3.2336v-4.022h2.3392v4.022h5.8652zm10.6984 21.287h-2.3392v-2.02h-4.3172v2.003h-2.3048v-23.1h8.9612v23.134zm-2.3392-4.592v-15.987h-4.3172v15.987z"/><path d="m103.286 168.063h-2.614v7.079c.825-.415 1.565-.812 2.218-1.191l.052 2.641c-2.184 1.347-4.5752 2.555-7.1552 3.591l-.602-2.434c1.3932-.605 2.4424-1.053 3.1476-1.381v-8.305h-2.666v-2.486h2.666v-7.406h2.3396v7.406h2.614zm15.188 13.777-1.48 2.003c-2.27-1.243-4.128-2.59-5.59-4.005-1.616 1.519-3.508 2.779-5.658 3.815l-1.669-2.037c2.511-1.122 4.421-2.313 5.728-3.591-1.479-1.934-2.632-3.936-3.303-6.958-.172 5.542-1.634 9.444-4.368 12.672l-1.978-1.536c1.307-1.485 2.304-3.194 2.992-5.093s1.032-4.144 1.032-7.631v-8.632h5.883v-2.624h2.322v2.624h5.985c-.378 2.451-.825 4.886-2.012 6.75l-2.098-1.018c1.1-1.796 1.152-2.296 1.307-3.263h-3.182v5.3h4.85c-.447 4.074-2.115 6.906-4.162 9.443 1.204 1.295 3.027 2.573 5.435 3.816zm-8.446-13.259v-5.3h-3.508v5.3zm4.455 2.469h-5.624c.653 2.348 1.513 3.764 2.597 5.179 1.118-1.432 2.425-2.831 3.027-5.179z"/><path d="m165.98 163.074-1.324 2.055c-1.187-1.364-2.58-2.642-4.214-3.85-.878 1.295-1.91 2.538-3.079 3.729h6.777v2.382h-2.735v2.158h3.818v2.348h-3.818v7.286c.997-.225 2.133-.57 3.388-1.036l.207 2.4c-3.286 1.157-6.468 2.054-9.564 2.71l-.447-2.33c1.153-.242 2.546-.587 4.163-1.054v-7.993h-3.733v-2.348h3.733v-2.158h-2.477v-1.744c-.327.328-.688.622-1.084.898l-.843-2.469c1.91-1.588 3.561-3.591 4.937-6.008l2.373.57c-.103.242-.223.466-.378.673 1.858 1.381 3.285 2.642 4.3 3.747zm-7.706 15.97-1.943.518c-.207-1.968-.551-3.902-1.032-5.801l1.926-.553c.585 2.262.929 4.196 1.032 5.836zm6.777-5.231c-.275 1.795-.671 3.228-1.169 4.299l-1.789-.605c.516-1.674.86-3.159 1.066-4.419zm13.296 8.045-1.634 2.003c-2.752-4.23-4.472-8.097-5.143-11.619-.464 1.951-1.101 3.642-1.617 4.937 1.239 1.261 2.408 2.607 3.475 4.04l-1.703 1.658c-.688-1.071-1.6-2.228-2.735-3.505-.757 1.467-1.737 2.952-2.907 4.489l-1.634-1.83c3.285-4.144 5.16-8.943 5.59-14.416h-4.472v-2.521h4.558c.069-1.882.138-4.178.172-6.888h2.305c0 3.366-.034 5.662-.069 6.888h5.504v2.521h-5.229c.706 5.127 2.563 9.875 5.556 14.243z"/><path d="m190.077 177.611c-2.201 1.294-4.816 2.589-7.877 3.884l-.688-2.434c1.118-.432 2.184-.881 3.216-1.381v-9.634h-2.855v-2.486h2.855v-7.337h2.356v7.337h2.752v2.486h-2.752v8.408c.602-.242 1.6-.742 2.993-1.537v2.711zm15.136 5.213h-15.635v-2.434h15.635zm-1.376-6.008h-12.59v-17.972h12.59zm-2.373-10.375v-5.145h-7.809v5.145zm0 7.976v-5.542h-7.809v5.542z"/><path d="m219.472 160.156c-1.204.449-2.511.795-3.922 1.036v3.747h3.337v2.434h-3.337v.811c1.394 1.589 2.563 3.229 3.544 4.921l-1.652 1.916c-.619-1.381-1.255-2.555-1.892-3.522v11.982h-2.304v-11.481c-1.239 2.641-2.426 4.558-3.578 5.783l-1.342-2.296c1.841-2.037 3.44-4.747 4.799-8.114h-4.541v-2.434h4.662v-3.35c-1.118.19-2.305.328-3.526.415l-.998-2.348c3.371-.173 6.57-.743 9.615-1.692l1.135 2.175zm12.178 16.505-2.46.415v6.474h-2.339l-.155-6.129-8.29 1.277-.052-2.589 8.497-1.312v-16.522h2.339v16.194l2.374-.328.068 2.52zm-5.969-5.628-1.599 1.934c-1.118-1.554-2.77-3.229-4.954-4.99l1.548-1.882c2.133 1.727 3.801 3.367 5.005 4.921zm.379-7.027-1.6 1.882c-1.479-1.83-3.044-3.418-4.678-4.765l1.634-1.83c1.771 1.502 3.319 3.073 4.626 4.696z"/><path d="m243.191 171.137c-.998.518-1.927.932-2.752 1.277v8.408c0 .829-.189 1.467-.551 1.934-.378.448-.997.69-1.857.707-.877 0-1.617 0-2.253-.017l-.74-2.52c.929.034 1.737.051 2.408.051.172 0 .327-.086.464-.241.155-.173.224-.346.224-.553v-6.785c-.98.38-1.978.708-3.027 1.002l-.637-2.383c1.652-.552 2.873-.984 3.664-1.329v-5.369h-3.371v-2.469h3.371v-4.696h2.305v4.696h2.425v2.469h-2.425v4.367c.688-.241 1.445-.587 2.27-1.053l.482 2.521zm14.757 10.462-1.358 2.175c-2.494-1.191-4.558-2.538-6.192-4.005-1.892 1.554-4.163 2.9-6.794 4.005l-1.308-2.331c2.546-.949 4.696-2.089 6.45-3.418-1.479-1.778-3.491-4.264-4.523-7.475v-2.435h5.108v-3.763h-5.607v-2.435h5.607v-3.677h2.374v3.677h5.555v2.435h-5.555v3.763h4.902v2.435c-1.239 3.245-2.701 5.766-4.421 7.527 1.462 1.329 3.389 2.486 5.78 3.505zm-3.956-11.049h-7.224c.654 2.158 2.374 4.091 3.75 5.8 1.445-1.588 2.597-3.521 3.457-5.8z"/><path d="m138.959 174.071h-11.421v6.319h11.421zm-2.288 4.075h-6.845v-1.917h6.845z"/><path d="m139.131 163.247h5.641v-2.434h-10.406v-2.573h-2.322v2.573h-10.474v2.434h5.538l1.015 2.469h-5.367v17.817h2.322v-15.504h4.352c0 1.934-1.307 3.125-3.87 3.574l1.135 2.175c3.303-.742 4.954-2.641 4.954-5.732h3.027v2.745c0 .449.172.846.516 1.226s.722.57 1.118.57h4.988v7.907c0 .259-.086.432-.258.518s-.774.138-1.806.138c-.378 0-.791 0-1.256-.034l.74 2.399c.654.052 1.187.069 1.634.069.843 0 1.445-.086 1.806-.241.361-.156.688-.449.98-.864.293-.414.43-.915.43-1.484v-15.279h-5.366l.396-1.053.516-1.416zm2.167 7.165h-3.973s-.172-.052-.258-.173c-.103-.121-.138-.207-.138-.294v-1.916h4.369zm-10.853-4.696-.946-2.469h7.31l-.963 2.469z"/><path d="m55.642 171.447h-4.9536v-2.279h4.5408v-2.313h-2.4768l.774-3.556h1.548v-2.452h-4.3344v-2.59h-2.2876v2.59h-4.6096v2.452h1.5652l.8772 3.556h-2.5284v2.313h4.6096v2.279h-4.8848v2.4h5.0052v9.668h2.2016v-9.702h4.9536v-2.383zm-7.2412-4.609-.8084-3.557h3.8356l-.8256 3.557z"/><path d="m59.1164 166.821v-4.23c2.5628-.553 4.816-1.278 6.7252-2.193l-1.6168-2.158c-2.0296.984-4.5064 1.709-7.482 2.158v9.72c0 5.231-.86 9.133-2.58 11.671l1.9264 1.726c1.9608-2.866 2.9756-7.855 3.0272-14.45h2.6832v14.433h2.3048v-14.433h2.408v-2.227h-7.3788z"/><path d="m53.1996 174.624-1.9264.967c.7224 1.346 1.2728 2.745 1.6684 4.23l1.8748-1.157c-.2924-1.226-.8256-2.573-1.6168-4.04z"/><path d="m43.1204 180.062 1.8748 1.537c.86-1.33 1.7028-3.211 2.5284-5.646l-2.0124-1.036c-.688 2.055-1.4964 3.764-2.3908 5.145z"/></g></svg>

<svg width="300" height="240" viewBox="0 0 300 240" fill="none" xmlns="http://www.w3.org/2000/svg">
<rect width="300" height="240" fill="white"/>
<g clip-path="url(#clip0_1908_43969)">
<path d="M192.812 137.903H108.205C101.893 137.903 96.75 132.74 96.75 126.404V41.4981C96.75 35.1621 101.893 30 108.205 30H192.812C199.124 30 204.25 35.1448 204.25 41.4981V126.422C204.25 132.758 199.124 137.92 192.812 137.92V137.903ZM108.205 33.2802C103.699 33.2802 100.035 36.9576 100.035 41.4808V126.404C100.035 130.928 103.699 134.605 108.205 134.605H192.812C197.318 134.605 200.982 130.928 200.982 126.404V41.4981C200.982 36.9748 197.318 33.2975 192.812 33.2975H108.205V33.2802Z" fill="#040000"/>
<path d="M119.23 59.5396H112.282V66.5144H119.23V59.5396Z" fill="#040000"/>
<path d="M119.23 45.5898H112.282V52.5647H119.23V45.5898Z" fill="#040000"/>
<path d="M133.128 59.5396H126.179V66.5144H133.128V59.5396Z" fill="#040000"/>
<path d="M133.128 45.5898H126.179V52.5647H133.128V45.5898Z" fill="#040000"/>
<path d="M147.026 115.338H140.077V122.313H147.026V115.338Z" fill="#040000"/>
<path d="M147.026 101.388H140.077V108.363H147.026V101.388Z" fill="#040000"/>
<path d="M147.026 87.4385H140.077V94.4133H147.026V87.4385Z" fill="#040000"/>
<path d="M147.026 73.4893H140.077V80.4641H147.026V73.4893Z" fill="#040000"/>
<path d="M147.026 59.5396H140.077V66.5144H147.026V59.5396Z" fill="#040000"/>
<path d="M147.026 45.5898H140.077V52.5647H147.026V45.5898Z" fill="#040000"/>
<path d="M160.923 115.338H153.974V122.313H160.923V115.338Z" fill="#040000"/>
<path d="M160.923 101.388H153.974V108.363H160.923V101.388Z" fill="#040000"/>
<path d="M160.923 87.4385H153.974V94.4133H160.923V87.4385Z" fill="#040000"/>
<path d="M160.923 73.4893H153.974V80.4641H160.923V73.4893Z" fill="#040000"/>
<path d="M160.923 59.5396H153.974V66.5144H160.923V59.5396Z" fill="#040000"/>
<path d="M160.923 45.5898H153.974V52.5647H160.923V45.5898Z" fill="#040000"/>
<path d="M174.821 59.5396H167.872V66.5144H174.821V59.5396Z" fill="#040000"/>
<path d="M174.821 45.5898H167.872V52.5647H174.821V45.5898Z" fill="#040000"/>
<path d="M188.718 59.5396H181.77V66.5144H188.718V59.5396Z" fill="#040000"/>
<path d="M188.718 45.5898H181.77V52.5647H188.718V45.5898Z" fill="#040000"/>
<path d="M100.465 211H103.097V205.044H121.226V211H123.857V190.99H100.465V211ZM103.097 195.307H121.226V200.728H103.097V195.307ZM43 195.307H52.6664V211H55.298V195.307H64.9644V190.99H43V195.307ZM74.82 195.307H84.4864V211H87.118V195.307H96.7844V190.99H74.8372V195.307H74.82ZM68.4904 211H71.122V190.99H68.4904V211ZM154.92 203.214H175.199V206.701H154.92V211.017H177.831V198.915H157.552V195.324H177.831V191.008H154.92V203.231V203.214ZM181.838 211H205.23V190.99H181.838V211ZM184.47 195.307H202.599V206.701H184.47V195.307ZM127.521 211H130.152V195.307H148.281V211H150.913V190.99H127.521V211ZM236.053 190.99V195.307H245.719V211H248.351V195.307H258.017V190.99H236.07H236.053ZM209.083 211H211.715V203.145H231.994V198.828H211.715V195.289H231.994V190.973H209.083V210.983V211Z" fill="#040000"/>
<path d="M80.8056 162.228C80.7884 166.423 80.6852 170.532 80.5132 174.538C80.3412 178.543 80.152 180.856 79.9628 181.478C79.7564 182.099 79.4124 182.6 78.8964 182.945C78.3804 183.308 77.572 183.48 76.4712 183.48C75.9208 183.48 75.3704 183.463 74.82 183.411L74.1664 180.856C74.8888 180.908 75.4736 180.943 75.9208 180.943C77.0388 180.943 77.6752 180.58 77.8644 179.855C78.0364 179.13 78.2256 174.071 78.432 164.714H74.906C74.6652 172.897 73.2548 178.681 70.7436 183.636L68.7312 182.099C71.1048 177.628 72.498 171.792 72.5324 164.731H69.3676V162.245H72.6012V158.223H74.9404V162.245H80.8056V162.228ZM91.504 183.515H89.1648V181.495H84.8476V183.498H82.5428V160.398H91.504V183.532V183.515ZM89.1648 178.923V162.936H84.8476V178.923H89.1648Z" fill="#040000"/>
<path d="M103.286 168.063H100.672V175.142C101.497 174.727 102.237 174.33 102.89 173.951L102.942 176.592C100.758 177.939 98.3668 179.147 95.7868 180.183L95.1848 177.749C96.578 177.144 97.6272 176.696 98.3324 176.368V168.063H95.6664V165.577H98.3324V158.171H100.672V165.577H103.286V168.063ZM118.474 181.84L116.994 183.843C114.724 182.6 112.866 181.253 111.404 179.838C109.788 181.357 107.896 182.617 105.746 183.653L104.077 181.616C106.588 180.494 108.498 179.303 109.805 178.025C108.326 176.091 107.173 174.089 106.502 171.067C106.33 176.609 104.868 180.511 102.134 183.739L100.156 182.203C101.463 180.718 102.46 179.009 103.148 177.11C103.836 175.211 104.18 172.966 104.18 169.479V160.847H110.063V158.223H112.385V160.847H118.37C117.992 163.298 117.545 165.733 116.358 167.597L114.26 166.579C115.36 164.783 115.412 164.283 115.567 163.316H112.385V168.616H117.235C116.788 172.69 115.12 175.522 113.073 178.059C114.277 179.354 116.1 180.632 118.508 181.875L118.474 181.84ZM110.028 168.581V163.281H106.52V168.581H110.028ZM114.483 171.05H108.859C109.512 173.398 110.372 174.814 111.456 176.229C112.574 174.797 113.881 173.398 114.483 171.05Z" fill="#040000"/>
<path d="M165.98 163.074L164.656 165.129C163.469 163.765 162.076 162.487 160.442 161.279C159.564 162.574 158.532 163.817 157.363 165.008H164.14V167.39H161.405V169.548H165.223V171.896H161.405V179.182C162.402 178.957 163.538 178.612 164.793 178.146L165 180.546C161.714 181.703 158.532 182.6 155.436 183.256L154.989 180.926C156.142 180.684 157.535 180.339 159.152 179.872V171.879H155.419V169.531H159.152V167.373H156.675V165.629C156.348 165.957 155.987 166.251 155.591 166.527L154.748 164.058C156.658 162.47 158.309 160.467 159.685 158.05L162.058 158.62C161.955 158.862 161.835 159.086 161.68 159.293C163.538 160.674 164.965 161.935 165.98 163.04V163.074ZM158.274 179.044L156.331 179.562C156.124 177.594 155.78 175.66 155.299 173.761L157.225 173.208C157.81 175.47 158.154 177.404 158.257 179.044H158.274ZM165.051 173.813C164.776 175.608 164.38 177.041 163.882 178.112L162.093 177.507C162.609 175.833 162.953 174.348 163.159 173.088L165.051 173.813ZM178.347 181.858L176.713 183.861C173.961 179.631 172.241 175.764 171.57 172.242C171.106 174.193 170.469 175.884 169.953 177.179C171.192 178.44 172.361 179.786 173.428 181.219L171.725 182.877C171.037 181.806 170.125 180.649 168.99 179.372C168.233 180.839 167.253 182.324 166.083 183.861L164.449 182.031C167.734 177.887 169.609 173.088 170.039 167.615H165.567V165.094H170.125C170.194 163.212 170.263 160.916 170.297 158.206H172.602C172.602 161.572 172.568 163.868 172.533 165.094H178.037V167.615H172.808C173.514 172.742 175.371 177.49 178.364 181.858H178.347Z" fill="#040000"/>
<path d="M190.077 177.611C187.876 178.905 185.261 180.2 182.2 181.495L181.512 179.061C182.63 178.629 183.696 178.18 184.728 177.68V168.046H181.873V165.56H184.728V158.223H187.084V165.56H189.836V168.046H187.084V176.454C187.686 176.212 188.684 175.712 190.077 174.917V177.628V177.611ZM205.213 182.824H189.578V180.39H205.213V182.824ZM203.837 176.816H191.247V158.844H203.837V176.816ZM201.464 166.441V161.296H193.655V166.441H201.464ZM201.464 174.417V168.875H193.655V174.417H201.464Z" fill="#040000"/>
<path d="M219.472 160.156C218.268 160.605 216.961 160.951 215.55 161.192V164.939H218.887V167.373H215.55V168.184C216.944 169.773 218.113 171.413 219.094 173.105L217.442 175.021C216.823 173.64 216.187 172.466 215.55 171.499V183.481H213.246V172C212.007 174.641 210.82 176.558 209.668 177.783L208.326 175.487C210.167 173.45 211.766 170.74 213.125 167.373H208.584V164.939H213.246V161.589C212.128 161.779 210.941 161.917 209.72 162.004L208.722 159.656C212.093 159.483 215.292 158.913 218.337 157.964L219.472 160.139V160.156ZM231.65 176.661L229.19 177.076V183.55H226.851L226.696 177.421L218.406 178.698L218.354 176.109L226.851 174.797V158.275H229.19V174.469L231.564 174.141L231.632 176.661H231.65ZM225.681 171.033L224.082 172.967C222.964 171.413 221.312 169.738 219.128 167.977L220.676 166.095C222.809 167.822 224.477 169.462 225.681 171.016V171.033ZM226.06 164.006L224.46 165.888C222.981 164.058 221.416 162.47 219.782 161.123L221.416 159.293C223.187 160.795 224.735 162.366 226.042 163.989L226.06 164.006Z" fill="#040000"/>
<path d="M243.191 171.137C242.193 171.655 241.264 172.069 240.439 172.414V180.822C240.439 181.651 240.25 182.289 239.888 182.756C239.51 183.204 238.891 183.446 238.031 183.463C237.154 183.463 236.414 183.463 235.778 183.446L235.038 180.926C235.967 180.96 236.775 180.977 237.446 180.977C237.618 180.977 237.773 180.891 237.91 180.736C238.065 180.563 238.134 180.39 238.134 180.183V173.398C237.154 173.778 236.156 174.106 235.107 174.4L234.47 172.017C236.122 171.465 237.343 171.033 238.134 170.688V165.319H234.763V162.85H238.134V158.154H240.439V162.85H242.864V165.319H240.439V169.686C241.127 169.445 241.884 169.099 242.709 168.633L243.191 171.154V171.137ZM257.948 181.599L256.59 183.774C254.096 182.583 252.032 181.236 250.398 179.769C248.506 181.323 246.235 182.669 243.604 183.774L242.296 181.443C244.842 180.494 246.992 179.354 248.746 178.025C247.267 176.247 245.255 173.761 244.223 170.55V168.115H249.331V164.352H243.724V161.917H249.331V158.24H251.705V161.917H257.26V164.352H251.705V168.115H256.607V170.55C255.368 173.795 253.906 176.316 252.186 178.077C253.648 179.406 255.575 180.563 257.966 181.582L257.948 181.599ZM253.992 170.55H246.768C247.422 172.708 249.142 174.641 250.518 176.35C251.963 174.762 253.115 172.829 253.975 170.55H253.992Z" fill="#040000"/>
<path d="M138.959 174.071H127.538V180.39H138.959V174.071ZM136.671 178.146H129.826V176.229H136.671V178.146Z" fill="#040000"/>
<path d="M139.131 163.247H144.772V160.813H134.366V158.24H132.044V160.813H121.57V163.247H127.108L128.123 165.716H122.756V183.533H125.078V168.029H129.43C129.43 169.963 128.123 171.154 125.56 171.603L126.695 173.778C129.998 173.036 131.649 171.137 131.649 168.046H134.676V170.791C134.676 171.24 134.848 171.637 135.192 172.017C135.536 172.397 135.914 172.587 136.31 172.587H141.298V180.494C141.298 180.753 141.212 180.926 141.04 181.012C140.868 181.098 140.266 181.15 139.234 181.15C138.856 181.15 138.443 181.15 137.978 181.116L138.718 183.515C139.372 183.567 139.905 183.584 140.352 183.584C141.195 183.584 141.797 183.498 142.158 183.343C142.519 183.187 142.846 182.894 143.138 182.479C143.431 182.065 143.568 181.564 143.568 180.995V165.716H138.202L138.598 164.663L139.114 163.247H139.131ZM141.298 170.412H137.325C137.325 170.412 137.153 170.36 137.067 170.239C136.964 170.118 136.929 170.032 136.929 169.945V168.029H141.298V170.412ZM130.445 165.716L129.499 163.247H136.809L135.846 165.716H130.445Z" fill="#040000"/>
<path d="M55.642 171.447H50.6884V169.168H55.2292V166.855H52.7524L53.5264 163.299H55.0744V160.847H50.74V158.257H48.4524V160.847H43.8428V163.299H45.408L46.2852 166.855H43.7568V169.168H48.3664V171.447H43.4816V173.847H48.4868V183.515H50.6884V173.813H55.642V171.43V171.447ZM48.4008 166.838L47.5924 163.281H51.428L50.6024 166.838H48.4008Z" fill="#040000"/>
<path d="M59.1164 166.821V162.591C61.6792 162.038 63.9324 161.313 65.8416 160.398L64.2248 158.24C62.1952 159.224 59.7184 159.949 56.7428 160.398V170.118C56.7428 175.349 55.8828 179.251 54.1628 181.789L56.0892 183.515C58.05 180.649 59.0648 175.66 59.1164 169.065H61.7996V183.498H64.1044V169.065H66.5124V166.838H59.1336L59.1164 166.821Z" fill="#040000"/>
<path d="M53.1996 174.624L51.2732 175.591C51.9956 176.937 52.546 178.336 52.9416 179.821L54.8164 178.664C54.524 177.438 53.9908 176.091 53.1996 174.624Z" fill="#040000"/>
<path d="M43.1204 180.062L44.9952 181.599C45.8552 180.269 46.698 178.388 47.5236 175.953L45.5112 174.917C44.8232 176.972 44.0148 178.681 43.1204 180.062Z" fill="#040000"/>
</g>
<defs>
<clipPath id="clip0_1908_43969">
<rect width="215" height="181" fill="white" transform="translate(43 30)"/>
</clipPath>
</defs>
</svg>
